assets/Shrimp/Flat/shrimp_flat.svg

<svg width="32" height="32" viewBox="0 0 32 32" fill="none" xmlns="http://www.w3.org/2000/svg">
<path d="M11.8931 5.72435C12.3083 5.67614 12.7272 5.65173 13.1477 5.65173H17.9977C24.6277 5.65173 29.9977 11.0217 29.9977 17.6517C29.9977 24.2817 24.6277 29.6517 17.9977 29.6517H8.62769C8.33769 29.6517 8.14769 29.3617 8.25769 29.0917L9.09769 27.1217C10.2577 24.4217 12.9177 22.6617 15.8677 22.6617H18.4877C19.8851 22.6617 21.0938 21.8386 21.6545 20.6517H21.1277C20.8377 20.6517 20.5777 20.8317 20.4877 21.1017C20.4177 21.3117 20.2277 21.4417 20.0177 21.4417C19.9677 21.4417 19.9077 21.4317 19.8577 21.4117C19.5977 21.3217 19.4577 21.0317 19.5477 20.7717C19.5623 20.7309 19.5784 20.6909 19.5958 20.6517H19.1477C18.8577 20.6517 18.5977 20.8317 18.5077 21.1017C18.4377 21.3117 18.2377 21.4417 18.0377 21.4417C17.9877 21.4417 17.9277 21.4317 17.8777 21.4117C17.6177 21.3217 17.4777 21.0317 17.5677 20.7717C17.8077 20.1017 18.4377 19.6517 19.1477 19.6517H21.9535C21.976 19.4916 21.9877 19.328 21.9877 19.1617C21.9877 18.6213 21.8646 18.1091 21.645 17.6517H21.1277C20.8377 17.6517 20.5777 17.8317 20.4877 18.1017C20.4177 18.3217 20.2277 18.4417 20.0177 18.4417C19.9677 18.4417 19.9077 18.4317 19.8577 18.4117C19.5977 18.3217 19.4577 18.0317 19.5477 17.7717C19.5623 17.7309 19.5784 17.6909 19.5958 17.6517H19.1477C18.8577 17.6517 18.5977 17.8317 18.5077 18.1017C18.4377 18.3217 18.2377 18.4417 18.0377 18.4417C17.9877 18.4417 17.9277 18.4317 17.8777 18.4117C17.6177 18.3217 17.4777 18.0317 17.5677 17.7717C17.8077 17.1017 18.4377 16.6517 19.1477 16.6517H20.9247C20.294 16.0393 19.4342 15.6617 18.4877 15.6617H17.2199L15.3777 18.2917C15.1377 18.6317 15.0077 19.0417 15.0077 19.4517V20.1517C15.0077 20.4317 14.7877 20.6517 14.5077 20.6517C14.2277 20.6517 14.0077 20.4317 14.0077 20.1517V19.4517C14.0077 18.8317 14.1977 18.2317 14.5577 17.7117L15.9936 15.6617H14.2199L12.3777 18.2917C12.1377 18.6317 12.0077 19.0417 12.0077 19.4517V20.1517C12.0077 20.4317 11.7877 20.6517 11.5077 20.6517C11.2277 20.6517 11.0077 20.4317 11.0077 20.1517V19.4517C11.0077 18.8317 11.1977 18.2317 11.5577 17.7117L12.9936 15.6617H11.2199L9.37769 18.2917C9.13769 18.6317 9.00769 19.0417 9.00769 19.4517V20.1517C9.00769 20.4317 8.78769 20.6517 8.50769 20.6517C8.22769 20.6517 8.00769 20.4317 8.00769 20.1517V19.4517C8.00769 18.8317 8.19769 18.2317 8.55769 17.7117L9.99363 15.6617H8.21711L5.92769 18.9417C5.82769 19.0817 5.66769 19.1517 5.51769 19.1517C5.41769 19.1517 5.31769 19.1217 5.22769 19.0617C4.99769 18.9017 4.94769 18.5917 5.10769 18.3617L6.99227 15.6617H2.35769C2.06769 15.6617 1.89769 15.3317 2.06769 15.1017L2.94769 13.8817C3.30769 13.3717 3.29769 12.6917 2.90769 12.2117L2.14769 11.2517C1.89769 10.9417 1.97769 10.4717 2.32769 10.2717L7.34769 7.32173C7.4676 7.24662 7.58879 7.17392 7.71119 7.10367L11.2177 4.96173C14.3577 3.04173 18.1877 2.50173 21.7277 3.47173L23.9677 4.08173C25.7777 4.57173 27.6377 4.27173 29.2177 3.26173C29.4477 3.11173 29.7577 3.18173 29.9077 3.41173C30.0677 3.65173 29.9977 3.96173 29.7677 4.10173C27.9477 5.26173 25.7977 5.61173 23.7177 5.04173L21.4777 4.43173C18.2523 3.55656 14.7659 4.02546 11.8931 5.72435Z" fill="#F8312F"/>
<path d="M8.2677 12.6517C7.8577 12.6517 7.5177 12.3117 7.5177 11.9017V10.4117C7.5177 10.0017 7.8577 9.66174 8.2677 9.66174C8.6777 9.66174 9.0177 10.0017 9.0177 10.4117V11.9017C9.0077 12.3117 8.6777 12.6517 8.2677 12.6517Z" fill="#1C1C1C"/>
<path d="M17.9977 5.65173H17.0077C19.1177 5.65173 20.3477 8.02173 19.1377 9.74173L15.0077 15.6517H18.4877C19.4377 15.6517 20.3077 16.0317 20.9377 16.6517H21.0077L23.6077 13.0717C25.4577 10.5217 24.2077 6.89173 21.1677 6.07173C20.1577 5.80173 19.0977 5.65173 17.9977 5.65173Z" fill="#FF822D"/>
<path d="M26.8177 13.8317L21.7277 20.5017C21.4977 21.0617 21.1177 21.5517 20.6377 21.9217C20.0497 22.3802 19.3128 22.6499 18.506 22.6517H15.6177C15.5677 22.6517 15.5177 22.6517 15.4677 22.6617C15.4377 22.6617 15.4077 22.6617 15.3777 22.6717C15.3177 22.6717 15.2477 22.6817 15.1877 22.6917H15.1577C15.0877 22.7017 15.0177 22.7117 14.9377 22.7117L15.0777 29.6517H17.9977C20.3577 29.6517 22.5477 28.9717 24.3977 27.8017C22.3677 28.4717 21.4477 26.8817 21.4477 26.8817L19.0677 22.6517L25.0177 22.6517C27.7577 22.6517 29.9977 20.4417 30.0077 17.7017V17.6517C30.0077 14.9317 29.0977 12.4217 27.5777 10.4117C27.5777 10.4117 27.5793 10.4175 27.5838 10.4289C27.6504 10.5989 28.205 12.0132 26.8177 13.8317Z" fill="#FF822D"/>
</svg>

<svg xmlns="http://www.w3.org/2000/svg" width="32" height="32" fill="none"><path fill="#F8312F" d="M11.893 5.724c.415-.048.834-.072 1.255-.072h4.85c6.63 0 12 5.37 12 12s-5.37 12-12 12h-9.37c-.29 0-.48-.29-.37-.56l.84-1.97a7.37 7.37 0 0 1 6.77-4.46h2.62a3.505 3.505 0 0 0 3.166-2.01h-.526a.67.67 0 0 0-.64.45.492.492 0 0 1-.63.31.506.506 0 0 1-.31-.64c.014-.041.03-.081.048-.12h-.448a.67.67 0 0 0-.64.45c-.07.21-.27.34-.47.34a.506.506 0 0 1-.47-.67c.24-.67.87-1.12 1.58-1.12h2.805a3.52 3.52 0 0 0-.308-2h-.517a.67.67 0 0 0-.64.45.48.48 0 0 1-.63.31.506.506 0 0 1-.31-.64c.014-.041.03-.081.048-.12h-.448a.67.67 0 0 0-.64.45.488.488 0 0 1-.63.31.506.506 0 0 1-.31-.64c.24-.67.87-1.12 1.58-1.12h1.777a3.489 3.489 0 0 0-2.437-.99H17.22l-1.842 2.63c-.24.34-.37.75-.37 1.16v.7c0 .28-.22.5-.5.5s-.5-.22-.5-.5v-.7c0-.62.19-1.22.55-1.74l1.436-2.05H14.22l-1.842 2.63c-.24.34-.37.75-.37 1.16v.7c0 .28-.22.5-.5.5s-.5-.22-.5-.5v-.7c0-.62.19-1.22.55-1.74l1.436-2.05H11.22l-1.842 2.63c-.24.34-.37.75-.37 1.16v.7c0 .28-.22.5-.5.5s-.5-.22-.5-.5v-.7c0-.62.19-1.22.55-1.74l1.436-2.05H8.217l-2.29 3.28a.507.507 0 0 1-.7.12.499.499 0 0 1-.12-.7l1.885-2.7H2.358c-.29 0-.46-.33-.29-.56l.88-1.22c.36-.51.35-1.19-.04-1.67l-.76-.96a.657.657 0 0 1 .18-.98l5.02-2.95c.12-.075.24-.148.363-.218l3.507-2.142a13.42 13.42 0 0 1 10.51-1.49l2.24.61c1.81.49 3.67.19 5.25-.82a.5.5 0 0 1 .69.15c.16.24.09.55-.14.69-1.82 1.16-3.97 1.51-6.05.94l-2.24-.61a12.488 12.488 0 0 0-9.585 1.292Z"/><path fill="#1C1C1C" d="M8.268 12.652c-.41 0-.75-.34-.75-.75v-1.49c0-.41.34-.75.75-.75s.75.34.75.75v1.49c-.01.41-.34.75-.75.75Z"/><path fill="#FF822D" d="M17.998 5.652h-.99c2.11 0 3.34 2.37 2.13 4.09l-4.13 5.91h3.48c.95 0 1.82.38 2.45 1h.07l2.6-3.58c1.85-2.55.6-6.18-2.44-7-1.01-.27-2.07-.42-3.17-.42ZM26.818 13.832l-5.09 6.67a3.46 3.46 0 0 1-1.09 1.42 3.458 3.458 0 0 1-2.132.73h-2.888c-.05 0-.1 0-.15.01-.03 0-.06 0-.09.01-.06 0-.13.01-.19.02h-.03c-.07.01-.14.02-.22.02l.14 6.94h2.92c2.36 0 4.55-.68 6.4-1.85-2.03.67-2.95-.92-2.95-.92l-2.38-4.23h5.95c2.74 0 4.98-2.21 4.99-4.95v-.05c0-2.72-.91-5.23-2.43-7.24l.006.017c.066.17.621 1.584-.766 3.403Z"/></svg>
